X: 516
T:Peter Flanagan's
M:4/4
L:1/8
Q:220
R:Reel
D:Cathal McConnell's 'Lough Erne's Shore'
N:Posted to the woodenflute mailing list May 2002
Z:Andrew Pickering
K:ADor
EAAG A2 Bd|eged egga|gedB GABd|edcB AGEG|
A2 AG A2 Bd|eged egga|gedB GABd|e2 dB A4:|
a2 ea a2 ea|a2 ba gede|g2 dg g2 dg|g2 af ge d2|
a2 ea a2 ea|a2 ba gede|gedB GABd|e2 dB A4:|

